X: 1
T:Killarney Boys of Pleasure
R:Reel
O:Ireland
M:4/4
K:EDor
E2ED D2FA|BFAF DEFA|\
B2 (3Bcd e2ed|(3Bcd AF DEFD|\
E2ED D2FA|BFAF DEFA|
B2 (3Bcd e2ed|(3Bcd AF E2ED::\
Be (3efe Bded|BdAF DEFe|\
f2fe f2fe|dBAF DEFA|
Be (3efe Bded|BdAF DEFe|f2fe d2fe |1\
dBAF DEFA :|2 dBAF E4|]
